X: 1
T: Farewell to Whalley Range
C: Michael McGoldrick
R: slipjig
Z: 2013 John Chambers <jc:trillian.mit.edu>
B: Christine Martin "Ho-Ro-Gheallaidh" "Session Tunes for Scottish Fiddlers" v.3 2008
M: 9/8
L: 1/8
K: F#m
|:"F#m"F2c BAF "E"F2E | "F#m"F2c BAc fec \
| "E"B3 BAB "A"c2A | "E"B-B-B BAB  [1,3 "A"cBA :|3,4 "A"cef :|
|:"F#m"a2f fec "C#m"fec | "E"B-B-B BAB "A"cef \
| "F#m"a2f "Bm"baf "A"afe | "F#m"fec [1,3 "C#m"Bce "F#m"fec :|2,4 "A"fec "E"BAB :|
